X:1
T:A Trip on the Erie
M:3/4
L:1/4
K:D
 D/2D/2| D F A| d c B| A G E| D2 d/2d/2| e A f| d c d| e A3/2 A/2|\
 A z A/2A/2| A d d| f f3/2 e/2| f d B| A z D/2D/2| F A A| B e d| c B c|\
 d2||

